X:15
T:For My Mother Dear
R:waltz
C:Jerry Holland
O:20th Century Cape Breton
S:Tune of the Month, May 1999
D:Fiddler's Choice, Odyssey Records,1999
N:Contacts ...
N:Bookings,Mechanicals etc.
N:..... Jerry Holland - jerry@cranfordpub.com
N:Tune books, related recordings
N:..... Cranford Publications - http://www.cranfordpub.com
B:Previously Unpublished.
H:Copyrights - Publisher:Fiddlesticks Music (SOCAN).
Z:This abc transcription is for personal use only
Z:provided this notice remains attached.
Z:Used by permission of the composer and publisher.
Z:Paul Stewart Cranford - psc@cranfordpub.com
Q:288
M:3/4
K:D
"waltz"
(A,B,)|:({B,C}D4) (TED)|({DE}F4) (TED)|({D}B,3) A, (G,B,)|A,4 DE|!
({A}F4)(TED)|({e}d4) AF|E6|TE3A, (A,B,)|!
({B,C}D4) (TED)|({DE}F4) (TED)|({D}B,3) A, (G,B,)|A,4 DE|!
=462A3B|({A}F3) F (TED)|({B,C}D6)|1D3 A, (A,B,):|2D4||!
|:("1"{f}"1"a2)|"1"a3"1"a ("2"ba)|"3"f4"2"Te2|("1slide"d"1"B2)B
(TBA)|({FG}A6)|!
dG3("1 slide"B"1"_B)|Ad3(f/g/f/e/)|({c/d/}e6)|Te4 ("1"{f}"1"a2)|!
"1"a3"1"a ("2"ba)|"3"f4"2"Te2|("1"d"1"B2)B (TBA)|({FG})A6|!
dG3("1 slide"B"1"_B)|Ad3(f/g/f/e/)|({c/d/}e4)-e d/e/|d4:||!

